frontend/public/img/profile-edit.svg

<svg width="26" height="26" viewBox="0 0 26 26" fill="none" xmlns="http://www.w3.org/2000/svg">
<g id="Group">
<path id="Exclude" fill-rule="evenodd" clip-rule="evenodd" d="M18.8316 0.512919C20.6298 0.400535 22.4029 1.02489 23.7391 2.24862C24.9628 3.58474 25.5872 5.35791 25.4873 7.16853V18.8315C25.5997 20.6421 24.9628 22.4153 23.7516 23.7514C22.4154 24.9751 20.6298 25.5995 18.8316 25.4871H7.16859C5.35795 25.5995 3.58477 24.9751 2.24864 23.7514C1.02489 22.4153 0.400535 20.6421 0.512919 18.8315V7.16853C0.400535 5.35791 1.02489 3.58474 2.24864 2.24862C3.58477 1.02489 5.35795 0.400535 7.16859 0.512919H18.8316ZM11.7264 19.0562L20.1303 10.6275C20.892 9.85325 20.892 8.60455 20.1303 7.84283L18.5069 6.21951C17.7327 5.44532 16.484 5.44532 15.7098 6.21951L14.8732 7.06864C14.7483 7.19351 14.7483 7.40579 14.8732 7.53066C14.8732 7.53066 16.8586 9.50362 16.8961 9.55357C17.0335 9.70341 17.1209 9.9032 17.1209 10.128C17.1209 10.5775 16.7587 10.9521 16.2967 10.9521C16.0844 10.9521 15.8846 10.8647 15.7473 10.7274L13.6619 8.6545C13.562 8.5546 13.3872 8.5546 13.2873 8.6545L7.33092 14.6108C6.91884 15.0229 6.68159 15.5723 6.6691 16.1592L6.59418 19.1187C6.59418 19.281 6.64413 19.4308 6.75651 19.5432C6.8689 19.6556 7.01874 19.718 7.18107 19.718H10.1156C10.7149 19.718 11.2894 19.4808 11.7264 19.0562Z" fill="#FF4D67"/>
</g>
</svg>

<?xml version="1.0"?>
<svg width="26" height="26" xmlns="http://www.w3.org/2000/svg" xmlns:svg="http://www.w3.org/2000/svg">
 <g class="layer">
  <title>Layer 1</title>
  <g id="Group">
   <path clip-rule="evenodd" d="m18.83,0.51c1.8,-0.11 3.57,0.51 4.91,1.74c1.22,1.33 1.85,3.11 1.75,4.92l0,11.66c0.11,1.81 -0.53,3.59 -1.74,4.92c-1.33,1.23 -3.12,1.85 -4.92,1.74l-11.66,0c-1.81,0.11 -3.59,-0.51 -4.92,-1.74c-1.23,-1.33 -1.85,-3.11 -1.74,-4.92l0,-11.66c-0.11,-1.81 0.51,-3.59 1.74,-4.92c1.33,-1.23 3.11,-1.85 4.92,-1.74l11.66,0zm-7.1,18.55l8.4,-8.43c0.76,-0.78 0.76,-2.03 0,-2.79l-1.62,-1.62c-0.78,-0.77 -2.03,-0.77 -2.8,0l-0.84,0.85c-0.12,0.12 -0.12,0.34 0,0.46c0,0 1.99,1.97 2.03,2.02c0.13,0.15 0.22,0.35 0.22,0.58c0,0.45 -0.36,0.82 -0.82,0.82c-0.22,0 -0.42,-0.09 -0.55,-0.22l-2.09,-2.08c-0.1,-0.1 -0.27,-0.1 -0.37,0l-5.96,5.96c-0.41,0.41 -0.65,0.96 -0.66,1.55l-0.08,2.96c0,0.16 0.05,0.31 0.17,0.42c0.11,0.12 0.26,0.18 0.42,0.18l2.94,0c0.59,0 1.17,-0.24 1.61,-0.66z" fill="#FF4D67" fill-rule="evenodd" id="Exclude"/>
  </g>
 </g>
</svg>
